com.fiatuconnect/capabilities/odometer.svg

<svg height="960" viewBox="0 0 960 960" width="960" xmlns="http://www.w3.org/2000/svg"><path d="m865 331c39.764502 0 72 32.235498 72 72v155c0 39.764502-32.235498 72-72 72h-771c-39.764502 0-72-32.235498-72-72v-155c0-39.764502 32.235498-72 72-72zm-116.576429 40.00027-654.423571-.00027c-17.673112 0-32 14.326888-32 32v155c0 17.673112 14.326888 32 32 32l654.423896.000728c-.924221-2.833451-1.423896-5.858737-1.423896-9.000728v-201c0-3.141622.499558-6.166566 1.423571-8.99973zm-589.099352 36.761449c14.713541 0 26.416015 4.899088 35.107422 14.697265 8.691406 9.798177 13.037109 24.072266 13.037109 42.822266v31.347656l-.002567.792302c-.119786 18.423989-4.432081 32.433976-12.936886 42.029964-8.626302 9.733073-20.296224 14.599609-35.009766 14.599609-14.84375 0-26.595052-4.866536-35.253906-14.599609s-12.988281-24.007162-12.988281-42.822266v-31.347656l.00264-.800831c.121473-18.356087 4.433744-32.363231 12.936813-42.021435 8.626302-9.798177 20.328776-14.697265 35.107422-14.697265zm127.746093 0c14.713542 0 26.416016 4.899088 35.107422 14.697265 8.691407 9.798177 13.03711 24.072266 13.03711 42.822266v31.347656l-.002567.792302c-.119786 18.423989-4.432082 32.433976-12.936886 42.029964-8.626302 9.733073-20.296224 14.599609-35.009766 14.599609-14.84375 0-26.595052-4.866536-35.253906-14.599609s-12.988281-24.007162-12.988281-42.822266v-31.347656l.00264-.800831c.121473-18.356087 4.433743-32.363231 12.936813-42.021435 8.626302-9.798177 20.328776-14.697265 35.107421-14.697265zm127.746094 0c14.713542 0 26.416016 4.899088 35.107422 14.697265s13.03711 24.072266 13.03711 42.822266v31.347656l-.002567.792302c-.119786 18.423989-4.432082 32.433976-12.936887 42.029964-8.626302 9.733073-20.296224 14.599609-35.009765 14.599609-14.84375 0-26.595052-4.866536-35.253907-14.599609-8.658854-9.733073-12.988281-24.007162-12.988281-42.822266v-31.347656l.002641-.800831c.121472-18.356087 4.433743-32.363231 12.936812-42.021435 8.626302-9.798177 20.328776-14.697265 35.107422-14.697265zm127.746094 0c14.713542 0 26.416016 4.899088 35.107422 14.697265s13.037109 24.072266 13.037109 42.822266v31.347656l-.002567.792302c-.119786 18.423989-4.432081 32.433976-12.936886 42.029964-8.626302 9.733073-20.296224 14.599609-35.009766 14.599609-14.84375 0-26.595052-4.866536-35.253906-14.599609s-12.988281-24.007162-12.988281-42.822266v-31.347656l.002641-.800831c.121472-18.356087 4.433743-32.363231 12.936812-42.021435 8.626302-9.798177 20.328776-14.697265 35.107422-14.697265zm127.746094 0c14.713541 0 26.416015 4.899088 35.107422 14.697265 8.691406 9.798177 13.037109 24.072266 13.037109 42.822266v31.347656l-.002567.792302c-.119786 18.423989-4.432081 32.433976-12.936886 42.029964-8.626302 9.733073-20.296224 14.599609-35.009766 14.599609-14.84375 0-26.595052-4.866536-35.253906-14.599609s-12.988281-24.007162-12.988281-42.822266v-31.347656l.00264-.800831c.121473-18.356087 4.433744-32.363231 12.936813-42.021435 8.626302-9.798177 20.328776-14.697265 35.107422-14.697265zm161.015625 0c-14.778646 0-26.48112 4.899088-35.107422 14.697265-8.503069 9.658204-12.81534 23.665348-12.936813 42.021435l-.00264.800831v31.347656c0 18.815104 4.329427 33.089193 12.988281 42.822266s20.410156 14.599609 35.253906 14.599609c14.713542 0 26.383464-4.866536 35.009766-14.599609 8.504805-9.595988 12.8171-23.605975 12.936886-42.029964l.002567-.792302v-31.347656c0-18.75-4.345703-33.024089-13.037109-42.822266-8.691407-9.798177-20.393881-14.697265-35.107422-14.697265zm-672 21.972656c-6.445313 0-11.328125 2.604167-14.648438 7.8125-3.320312 5.208333-4.980469 13.476563-4.980469 24.804688v37.011718l.001934.670415c.064453 11.113515 1.740241 19.223376 5.027363 24.329585 3.352865 5.208334 8.284506 7.8125 14.794922 7.8125 6.380209 0 11.230469-2.604166 14.550781-7.8125 3.320313-5.208333 4.980469-13.541666 4.980469-25v-37.011718l-.002031-.672168c-.066354-10.919727-1.758385-18.947624-5.076094-24.083692-3.385416-5.240885-8.268229-7.861328-14.648437-7.861328zm127.746093 0c-6.445312 0-11.328124 2.604167-14.648437 7.8125s-4.980469 13.476563-4.980469 24.804688v37.011718l.001934.670415c.064453 11.113515 1.740241 19.223376 5.027363 24.329585 3.352865 5.208334 8.284505 7.8125 14.794922 7.8125 6.380208 0 11.230469-2.604166 14.550781-7.8125 3.320313-5.208333 4.980469-13.541666 4.980469-25v-37.011718l-.002031-.672168c-.066354-10.919727-1.758386-18.947624-5.076094-24.083692-3.385417-5.240885-8.268229-7.861328-14.648438-7.861328zm127.746094 0c-6.445312 0-11.328125 2.604167-14.648437 7.8125-3.320313 5.208333-4.980469 13.476563-4.980469 24.804688v37.011718l.001934.670415c.064453 11.113515 1.740241 19.223376 5.027363 24.329585 3.352864 5.208334 8.284505 7.8125 14.794922 7.8125 6.380208 0 11.230469-2.604166 14.550781-7.8125 3.320312-5.208333 4.980469-13.541666 4.980469-25v-37.011718l-.002032-.672168c-.066354-10.919727-1.758385-18.947624-5.076093-24.083692-3.385417-5.240885-8.268229-7.861328-14.648438-7.861328zm127.746094 0c-6.445312 0-11.328125 2.604167-14.648438 7.8125-3.320312 5.208333-4.980468 13.476563-4.980468 24.804688v37.011718l.001933.670415c.064454 11.113515 1.740241 19.223376 5.027364 24.329585 3.352864 5.208334 8.284505 7.8125 14.794921 7.8125 6.380209 0 11.230469-2.604166 14.550782-7.8125 3.320312-5.208333 4.980468-13.541666 4.980468-25v-37.011718l-.002031-.672168c-.066354-10.919727-1.758385-18.947624-5.076093-24.083692-3.385417-5.240885-8.26823-7.861328-14.648438-7.861328zm127.746094 0c-6.445313 0-11.328125 2.604167-14.648438 7.8125-3.320312 5.208333-4.980468 13.476563-4.980468 24.804688v37.011718l.001933.670415c.064453 11.113515 1.740241 19.223376 5.027363 24.329585 3.352865 5.208334 8.284506 7.8125 14.794922 7.8125 6.380209 0 11.230469-2.604166 14.550782-7.8125 3.320312-5.208333 4.980468-13.541666 4.980468-25v-37.011718l-.002031-.672168c-.066354-10.919727-1.758385-18.947624-5.076094-24.083692-3.385416-5.240885-8.268229-7.861328-14.648437-7.861328zm161.015625 0c6.380208 0 11.263021 2.620443 14.648437 7.861328 3.317709 5.136068 5.00974 13.163965 5.076094 24.083692l.002031.672168v37.011718c0 11.458334-1.660156 19.791667-4.980469 25-3.320312 5.208334-8.170572 7.8125-14.550781 7.8125-6.510416 0-11.442057-2.604166-14.794922-7.8125-3.287122-5.106209-4.96291-13.21607-5.027363-24.329585l-.001934-.670415v-37.011718c0-11.328125 1.660157-19.596355 4.980469-24.804688 3.320313-5.208333 8.203125-7.8125 14.648438-7.8125z"/></svg>

<?xml version="1.0" encoding="UTF-8"?>
<svg width="960px" height="960px" viewBox="0 0 960 960" version="1.1" xmlns="http://www.w3.org/2000/svg" xmlns:xlink="http://www.w3.org/1999/xlink">
    <title>se.cohen.renaultze/capabilities/odometer</title>
    <g id="se.cohen.renaultze/capabilities/odometer" stroke="none" stroke-width="1" fill="none" fill-rule="evenodd">
        <path d="M865,331 C904.764502,331 937,363.235498 937,403 L937,403 L937,558 C937,597.764502 904.764502,630 865,630 L865,630 L94,630 C54.235498,630 22,597.764502 22,558 L22,558 L22,403 C22,363.235498 54.235498,331 94,331 L94,331 Z M748.423571,371.00027 L94,371 C76.326888,371 62,385.326888 62,403 L62,403 L62,558 C62,575.673112 76.326888,590 94,590 L94,590 L748.423896,590.000728 C747.499675,587.167277 747,584.141991 747,581 L747,380 C747,376.858378 747.499558,373.833434 748.423571,371.00027 Z M159.324219,407.761719 C174.03776,407.761719 185.740234,412.660807 194.431641,422.458984 C203.123047,432.257161 207.46875,446.53125 207.46875,465.28125 L207.46875,465.28125 L207.46875,496.628906 L207.466183,497.421208 C207.346397,515.845197 203.034102,529.855184 194.529297,539.451172 C185.902995,549.184245 174.233073,554.050781 159.519531,554.050781 C144.675781,554.050781 132.924479,549.184245 124.265625,539.451172 C115.606771,529.718099 111.277344,515.44401 111.277344,496.628906 L111.277344,496.628906 L111.277344,465.28125 L111.279984,464.480419 C111.401457,446.124332 115.713728,432.117188 124.216797,422.458984 C132.843099,412.660807 144.545573,407.761719 159.324219,407.761719 Z M287.070312,407.761719 C301.783854,407.761719 313.486328,412.660807 322.177734,422.458984 C330.869141,432.257161 335.214844,446.53125 335.214844,465.28125 L335.214844,465.28125 L335.214844,496.628906 L335.212277,497.421208 C335.092491,515.845197 330.780195,529.855184 322.275391,539.451172 C313.649089,549.184245 301.979167,554.050781 287.265625,554.050781 C272.421875,554.050781 260.670573,549.184245 252.011719,539.451172 C243.352865,529.718099 239.023438,515.44401 239.023438,496.628906 L239.023438,496.628906 L239.023438,465.28125 L239.026078,464.480419 C239.147551,446.124332 243.459821,432.117188 251.962891,422.458984 C260.589193,412.660807 272.291667,407.761719 287.070312,407.761719 Z M414.816406,407.761719 C429.529948,407.761719 441.232422,412.660807 449.923828,422.458984 C458.615234,432.257161 462.960938,446.53125 462.960938,465.28125 L462.960938,465.28125 L462.960938,496.628906 L462.958371,497.421208 C462.838585,515.845197 458.526289,529.855184 450.021484,539.451172 C441.395182,549.184245 429.72526,554.050781 415.011719,554.050781 C400.167969,554.050781 388.416667,549.184245 379.757812,539.451172 C371.098958,529.718099 366.769531,515.44401 366.769531,496.628906 L366.769531,496.628906 L366.769531,465.28125 L366.772172,464.480419 C366.893644,446.124332 371.205915,432.117188 379.708984,422.458984 C388.335286,412.660807 400.03776,407.761719 414.816406,407.761719 Z M542.5625,407.761719 C557.276042,407.761719 568.978516,412.660807 577.669922,422.458984 C586.361328,432.257161 590.707031,446.53125 590.707031,465.28125 L590.707031,465.28125 L590.707031,496.628906 L590.704464,497.421208 C590.584678,515.845197 586.272383,529.855184 577.767578,539.451172 C569.141276,549.184245 557.471354,554.050781 542.757812,554.050781 C527.914062,554.050781 516.16276,549.184245 507.503906,539.451172 C498.845052,529.718099 494.515625,515.44401 494.515625,496.628906 L494.515625,496.628906 L494.515625,465.28125 L494.518266,464.480419 C494.639738,446.124332 498.952009,432.117188 507.455078,422.458984 C516.08138,412.660807 527.783854,407.761719 542.5625,407.761719 Z M670.308594,407.761719 C685.022135,407.761719 696.724609,412.660807 705.416016,422.458984 C714.107422,432.257161 718.453125,446.53125 718.453125,465.28125 L718.453125,465.28125 L718.453125,496.628906 L718.450558,497.421208 C718.330772,515.845197 714.018477,529.855184 705.513672,539.451172 C696.88737,549.184245 685.217448,554.050781 670.503906,554.050781 C655.660156,554.050781 643.908854,549.184245 635.25,539.451172 C626.591146,529.718099 622.261719,515.44401 622.261719,496.628906 L622.261719,496.628906 L622.261719,465.28125 L622.264359,464.480419 C622.385832,446.124332 626.698103,432.117188 635.201172,422.458984 C643.827474,412.660807 655.529948,407.761719 670.308594,407.761719 Z M831.324219,407.761719 C816.545573,407.761719 804.843099,412.660807 796.216797,422.458984 C787.713728,432.117188 783.401457,446.124332 783.279984,464.480419 L783.277344,465.28125 L783.277344,496.628906 C783.277344,515.44401 787.606771,529.718099 796.265625,539.451172 C804.924479,549.184245 816.675781,554.050781 831.519531,554.050781 C846.233073,554.050781 857.902995,549.184245 866.529297,539.451172 C875.034102,529.855184 879.346397,515.845197 879.466183,497.421208 L879.46875,496.628906 L879.46875,465.28125 C879.46875,446.53125 875.123047,432.257161 866.431641,422.458984 C857.740234,412.660807 846.03776,407.761719 831.324219,407.761719 Z M159.324219,429.734375 C152.878906,429.734375 147.996094,432.338542 144.675781,437.546875 C141.355469,442.755208 139.695312,451.023438 139.695312,462.351562 L139.695312,462.351562 L139.695312,499.363281 L139.697246,500.033696 C139.761699,511.147211 141.437487,519.257072 144.724609,524.363281 C148.077474,529.571615 153.009115,532.175781 159.519531,532.175781 C165.89974,532.175781 170.75,529.571615 174.070312,524.363281 C177.390625,519.154948 179.050781,510.821615 179.050781,499.363281 L179.050781,499.363281 L179.050781,462.351562 L179.04875,461.679395 C178.982396,450.759668 177.290365,442.731771 173.972656,437.595703 C170.58724,432.354818 165.704427,429.734375 159.324219,429.734375 Z M287.070312,429.734375 C280.625,429.734375 275.742188,432.338542 272.421875,437.546875 C269.101562,442.755208 267.441406,451.023438 267.441406,462.351562 L267.441406,462.351562 L267.441406,499.363281 L267.44334,500.033696 C267.507793,511.147211 269.183581,519.257072 272.470703,524.363281 C275.823568,529.571615 280.755208,532.175781 287.265625,532.175781 C293.645833,532.175781 298.496094,529.571615 301.816406,524.363281 C305.136719,519.154948 306.796875,510.821615 306.796875,499.363281 L306.796875,499.363281 L306.796875,462.351562 L306.794844,461.679395 C306.72849,450.759668 305.036458,442.731771 301.71875,437.595703 C298.333333,432.354818 293.450521,429.734375 287.070312,429.734375 Z M414.816406,429.734375 C408.371094,429.734375 403.488281,432.338542 400.167969,437.546875 C396.847656,442.755208 395.1875,451.023438 395.1875,462.351562 L395.1875,462.351562 L395.1875,499.363281 L395.189434,500.033696 C395.253887,511.147211 396.929675,519.257072 400.216797,524.363281 C403.569661,529.571615 408.501302,532.175781 415.011719,532.175781 C421.391927,532.175781 426.242188,529.571615 429.5625,524.363281 C432.882812,519.154948 434.542969,510.821615 434.542969,499.363281 L434.542969,499.363281 L434.542969,462.351562 L434.540937,461.679395 C434.474583,450.759668 432.782552,442.731771 429.464844,437.595703 C426.079427,432.354818 421.196615,429.734375 414.816406,429.734375 Z M542.5625,429.734375 C536.117188,429.734375 531.234375,432.338542 527.914062,437.546875 C524.59375,442.755208 522.933594,451.023438 522.933594,462.351562 L522.933594,462.351562 L522.933594,499.363281 L522.935527,500.033696 C522.999981,511.147211 524.675768,519.257072 527.962891,524.363281 C531.315755,529.571615 536.247396,532.175781 542.757812,532.175781 C549.138021,532.175781 553.988281,529.571615 557.308594,524.363281 C560.628906,519.154948 562.289062,510.821615 562.289062,499.363281 L562.289062,499.363281 L562.289062,462.351562 L562.287031,461.679395 C562.220677,450.759668 560.528646,442.731771 557.210938,437.595703 C553.825521,432.354818 548.942708,429.734375 542.5625,429.734375 Z M670.308594,429.734375 C663.863281,429.734375 658.980469,432.338542 655.660156,437.546875 C652.339844,442.755208 650.679688,451.023438 650.679688,462.351562 L650.679688,462.351562 L650.679688,499.363281 L650.681621,500.033696 C650.746074,511.147211 652.421862,519.257072 655.708984,524.363281 C659.061849,529.571615 663.99349,532.175781 670.503906,532.175781 C676.884115,532.175781 681.734375,529.571615 685.054688,524.363281 C688.375,519.154948 690.035156,510.821615 690.035156,499.363281 L690.035156,499.363281 L690.035156,462.351562 L690.033125,461.679395 C689.966771,450.759668 688.27474,442.731771 684.957031,437.595703 C681.571615,432.354818 676.688802,429.734375 670.308594,429.734375 Z M831.324219,429.734375 C837.704427,429.734375 842.58724,432.354818 845.972656,437.595703 C849.290365,442.731771 850.982396,450.759668 851.04875,461.679395 L851.050781,462.351562 L851.050781,499.363281 C851.050781,510.821615 849.390625,519.154948 846.070312,524.363281 C842.75,529.571615 837.89974,532.175781 831.519531,532.175781 C825.009115,532.175781 820.077474,529.571615 816.724609,524.363281 C813.437487,519.257072 811.761699,511.147211 811.697246,500.033696 L811.695312,499.363281 L811.695312,462.351562 C811.695312,451.023438 813.355469,442.755208 816.675781,437.546875 C819.996094,432.338542 824.878906,429.734375 831.324219,429.734375 Z" id="Combined-Shape" fill="#000000" fill-rule="nonzero"></path>
    </g>
</svg>
